modules/feathericon/icons/picture-square.svg

<?xml version="1.0" encoding="UTF-8"?>
<svg width="24px" height="24px" viewBox="0 0 24 24" version="1.1" xmlns="http://www.w3.org/2000/svg" xmlns:xlink="http://www.w3.org/1999/xlink">
    <!-- Generator: sketchtool 52.2 (67145) - http://www.bohemiancoding.com/sketch -->
    <title>picture-square</title>
    <desc>Created with sketchtool.</desc>
    <g id="text-edit" stroke="none" stroke-width="1" fill="none" fill-rule="evenodd">
        <g id="picture-square" fill="#000000" fill-rule="nonzero">
            <path d="M5,5 L5,19 L19,19 L19,5 L5,5 Z M5,3 L19,3 C20.1045695,3 21,3.8954305 21,5 L21,19 C21,20.1045695 20.1045695,21 19,21 L5,21 C3.8954305,21 3,20.1045695 3,19 L3,5 C3,3.8954305 3.8954305,3 5,3 Z M8.5,10 C9.32842712,10 10,9.32842712 10,8.5 C10,7.67157288 9.32842712,7 8.5,7 C7.67157288,7 7,7.67157288 7,8.5 C7,9.32842712 7.67157288,10 8.5,10 Z M7,14 L9,12 L11,14 L14,11 L17,14 L17,17 L7,17 L7,14 Z" id="Shape"></path>
        </g>
    </g>
</svg>

<svg width="24" height="24" viewBox="0 0 24 24" xmlns="http://www.w3.org/2000/svg"><path d="M5 5v14h14V5H5zm0-2h14a2 2 0 0 1 2 2v14a2 2 0 0 1-2 2H5a2 2 0 0 1-2-2V5a2 2 0 0 1 2-2zm3.5 7a1.5 1.5 0 1 0 0-3 1.5 1.5 0 0 0 0 3zM7 14l2-2 2 2 3-3 3 3v3H7v-3z" fill="#000" fill-rule="nonzero"/></svg>
